X: 11
T: Ye Banks And Braes
B: begged borrowed and stolen
M:3/4
L:1/8
R: waltz
Q: 1/4=100
K:Gmajor
V:1 
D2|"G"G4 G<G|"D"A2 G2 A2|"G"B4 d<B|"D"A2 G2 A2|"G"B3 A G2|"Em"G2 E2 D2|"C"D2 E2 G2|"D"A4 BA|
"G"G4 G>G|"D"A3 G A2|"G"B2 d2 B2|"D"(3ABA G3 A|"G"B3 A G2|"Em"G2 E2 D2|"C"D2 E2 G2|"G"G4 B2|
 "G"d4 e2|d2 B2 G2|d4 e2|d2 B2 G2|d2 B2 G2|"Em"(3ded B2 G2|"C"e3 d cB|"D"A3 A BA
|"G" G3 G G>G|"D"A2 G2 A2|"G"B2 d3 B|"D"A2 G2 A2|"G"B3 A G2|"Em"G2 E2 D>D|"C"D2 E2 G2|"G"G4||
% abcbook-tune_id 62828a3a163691ed5f15fa4c


% abcbook-boost 0
% abcbook-tablature 
% abcbook-transpose 
% abcbook-lastupdated 1652725431048
% abcbook-soundfonts 
% abcbook-repeats 3
% abc-sessionorg_id 6718
% abc-sessionorg_setting 0
% abc-sessionorg_setting_id 6718
% abc-boost 1

